X: 11188
T: Dunkeld Steeple
R: reel
M: 4/4
K: Amajor
A,C EA ce fg|a{a}g fe dc BA|df Bd ce Ac|d{d}c BA {A}G2 FE|
A,C EA ce fg|a{a}g fe dc BA|df Bd ce Ac|d{d}B GB {B}A4:|
ag ae fe dc|df Bd {ed}c2 BA|df Bd ce Ac|d{d}c BA {A}G2 FE|
[1ag ae fe dc|df Bd {ed}c2 BA|df Bd ce Ac|d{d}B GB {B}A4:|
[2Ac eA ce fg|a{a}g fe dc BA|df Bd ce Ac|d{d}B GB A4||

